src/icons/error.svg

<?xml version="1.0" encoding="UTF-8"?>
<svg xmlns="http://www.w3.org/2000/svg" xmlns:xlink="http://www.w3.org/1999/xlink" width="32" height="32" viewBox="0 0 32 32" version="1.1">
<g id="surface1">
<path style=" stroke:none;fill-rule:nonzero;fill:rgb(0%,0%,0%);fill-opacity:1;" d="M 31.859375 29.023438 L 16.554688 2.515625 C 16.324219 2.121094 15.675781 2.121094 15.445312 2.515625 L 0.0859375 29.121094 C -0.0273438 29.316406 -0.0273438 29.5625 0.0859375 29.761719 C 0.199219 29.957031 0.414062 30.078125 0.640625 30.078125 L 31.359375 30.078125 C 31.363281 30.078125 31.371094 30.078125 31.371094 30.078125 C 31.726562 30.078125 32.011719 29.796875 32.011719 29.441406 C 32.011719 29.28125 31.953125 29.136719 31.859375 29.023438 Z M 15.035156 12.328125 C 15.035156 12.191406 15.128906 12.101562 15.265625 12.101562 L 16.734375 12.101562 C 16.871094 12.101562 16.960938 12.191406 16.960938 12.328125 L 16.960938 21.585938 C 16.960938 21.722656 16.871094 21.816406 16.734375 21.816406 L 15.265625 21.816406 C 15.128906 21.816406 15.035156 21.722656 15.035156 21.585938 Z M 17.011719 25.558594 C 17.011719 25.699219 16.917969 25.789062 16.78125 25.789062 L 15.21875 25.789062 C 15.082031 25.789062 14.992188 25.695312 14.992188 25.558594 L 14.992188 23.882812 C 14.992188 23.746094 15.085938 23.65625 15.21875 23.65625 L 16.78125 23.65625 C 16.921875 23.65625 17.011719 23.746094 17.011719 23.882812 Z M 17.011719 25.558594 "/>
</g>
</svg>

<svg role="img" viewBox="0 0 32 32" xmlns="http://www.w3.org/2000/svg"><path d="M31.86 29.023 16.554 2.516c-.23-.395-.88-.395-1.11 0L.085 29.12a.646.646 0 0 0 0 .64.644.644 0 0 0 .556.317h30.73c.356 0 .64-.281.64-.637a.653.653 0 0 0-.152-.418M15.034 12.328c0-.137.094-.226.23-.226h1.47c.136 0 .226.09.226.226v9.258c0 .137-.09.23-.227.23h-1.468a.22.22 0 0 1-.23-.23Zm1.977 13.23c0 .141-.094.231-.23.231h-1.563c-.137 0-.227-.094-.227-.23v-1.676c0-.137.094-.227.227-.227h1.562c.14 0 .23.09.23.227Zm0 0" style="stroke:none;fill-rule:nonzero;fill:rgb(0%,0%,0%);fill-opacity:1"/></svg>
